packages/elvis-assets-icons/icons/svg/src/home.svg

<svg width="24" height="24" viewBox="0 0 24 24" fill="none" xmlns="http://www.w3.org/2000/svg">
<path d="M14.249 23C13.835 23 13.499 22.6621 13.499 22.2458V16.2124C13.499 15.7961 13.163 15.4582 12.749 15.4582H11.249C10.835 15.4582 10.499 15.7961 10.499 16.2124V22.2458C10.499 22.6621 10.163 23 9.749 23H3.749C3.335 23 2.999 22.6621 2.999 22.2458V11.246V9.5C2.999 9.08369 3.335 8.74582 3.749 8.74582C4.163 8.74582 4.499 9.08369 4.499 9.5V9.73777V21.4916H8.999V16.2124C8.999 14.9644 10.008 13.9498 11.249 13.9498H12.749C13.99 13.9498 14.999 14.9644 14.999 16.2124V21.4916H19.499V9.73608V9.5C19.499 9.08369 19.835 8.74582 20.249 8.74582C20.663 8.74582 20.999 9.58369 20.999 10V11.2441V22.2458C20.999 22.6621 20.663 23 20.249 23H14.249Z" fill="black"/>
<path d="M2.999 11.246V9.5C2.999 9.08369 3.335 8.74582 3.749 8.74582C4.163 8.74582 4.499 9.08369 4.499 9.5V9.73777L11.469 2.72959C11.611 2.58781 11.799 2.50937 12 2.50937C12.201 2.50937 12.389 2.58781 12.53 2.72959L19.499 9.73608V9.5C19.499 9.08369 19.835 8.74582 20.249 8.74582C20.663 8.74582 20.999 9.58369 20.999 10V11.2441L22.719 12.9734C22.86 13.1162 23.049 13.1946 23.249 13.1946C23.449 13.1946 23.637 13.1162 23.779 12.9734C24.071 12.6788 24.071 12.2001 23.779 11.9065L20.999 9.11098L15.797 3.87997L13.591 1.66167C13.166 1.2353 12.601 1 12 1C11.398 1 10.833 1.2353 10.409 1.66167L0.219 11.9075C-0.073 12.2021 -0.073 12.6808 0.219 12.9744C0.36 13.1172 0.549 13.1956 0.749 13.1956C0.949 13.1956 1.138 13.1172 1.279 12.9754L2.999 11.246Z" fill="black"/>
<path d="M13.5 11C13.5 11.8284 12.8284 12.5 12 12.5C11.1716 12.5 10.5 11.8284 10.5 11C10.5 10.1716 11.1716 9.5 12 9.5C12.8284 9.5 13.5 10.1716 13.5 11Z" fill="black"/>
</svg>

<svg width="24" height="24" fill="none" xmlns="http://www.w3.org/2000/svg"><path d="M14.249 23a.752.752 0 01-.75-.754v-6.034a.752.752 0 00-.75-.754h-1.5a.752.752 0 00-.75.754v6.034a.752.752 0 01-.75.754h-6a.752.752 0 01-.75-.754V9.5c0-.416.336-.754.75-.754s.75.338.75.754V21.492h4.5v-5.28a2.258 2.258 0 012.25-2.262h1.5a2.258 2.258 0 012.25 2.262v5.28h4.5V9.5c0-.416.336-.754.75-.754s.75.838.75 1.254v12.246a.752.752 0 01-.75.754h-6z" fill="#000"/><path d="M2.999 11.246V9.5c0-.416.336-.754.75-.754s.75.338.75.754v.238l6.97-7.008a.746.746 0 011.061 0l6.969 7.006V9.5c0-.416.336-.754.75-.754s.75.838.75 1.254v1.244l1.72 1.73a.742.742 0 001.06 0 .76.76 0 000-1.068l-2.78-2.795-5.202-5.231-2.206-2.218A2.232 2.232 0 0012 1c-.602 0-1.167.235-1.591.662L.219 11.908a.76.76 0 000 1.066.744.744 0 001.06.001l1.72-1.729z" fill="#000"/><path d="M13.5 11a1.5 1.5 0 11-3 0 1.5 1.5 0 013 0z" fill="#000"/></svg>
